X:1
T:Magnify, CM
T:Magnify, CM
T:Calvin Weiss Laufer (1874-1938)
T:Public Domain Courtesy of the Cyber Hymnal™
C:Calvin Weiss Laufer (1874-1938)
Z:Public Domain
Z:Courtesy of the Cyber Hymnal™
%%score ( 1 2 ) 3
L:1/8
Q:1/4=115
M:4/4
K:G
V:1 treble 
V:2 treble 
V:3 bass 
V:1
 [DB]2 | [Dd]2 [Dd]2 [EG]2 (cB) | [FA]2 [FA]2 [DG]2 D2 | (EF) [DG]2 [Dc]2 [DB]2 | [DA]6 [DA]2 | %5
 [Ee]2 [Ee]2 [Ec]2 (BA) | [=Fd]2 [Fd]2 [Ec]2 GE | (DE) (FG) [FA]2 [FA]2 | [DG]6 |] %9
V:2
 x2 | x6 E2 | x6 D2 | C2 x6 | x8 | x6 D2 | x6 E2 | D2 D2 x4 | x6 |] %9
V:3
 [G,B,]2 | [F,A,]2 [G,B,]2 [E,B,]2 [A,,C]2 | [D,D]2 [D,C]2 [G,,B,]2 [C,G,]2 | %3
 [C,G,]2 [C,G,]2 [A,,F,]2 [G,,G,]2 | [D,F,]6 [D,F,]2 | [C,G,]2 [C,G,]2 [A,,A,]2 [D,F,]2 | %6
 [B,,G,]2 [B,,G,]2 [C,G,]2 [^C,^A,]2 | [D,B,]2 [D,B,]2 [D,D]2 [D,C]2 | [G,B,]6 |] %9

